X: 143
T:Quick Step. JaW.143
M:2/4
L:1/16
Q:100
S:James Winder Ms, Lancashire, 1835-41
R:March
O:England
A:Wyresdale,Lancashire
H:1/16
Z:vmp.Chris Partington, Aug 2004
K:F
f2f2 f2ef|g2g2 g3a|b2g2a2f2|efge c2de|!
f2f2 f2ef|g2g2 g2ab|c'2a2 b2g2|f2f2 f4:|!
|:c'4 a4|b4g4|a2f2 fac'a|a2g2g4|!
c4A4|B4G4|A2F2 FAcA|A2G2 G2c2|!
fgag fedc|fgag fedc|c'2a2b2g2|f2f2 f4:|]
